packages/ffe-icons/icons/filled/sm/flashlight_on.svg

<svg xmlns="http://www.w3.org/2000/svg" height="20" viewBox="0 -960 960 960" width="20"><path d="M260.001-733.999v-45.692q0-26.527 18.891-45.417 18.89-18.891 45.417-18.891h311.382q26.527 0 45.417 18.891 18.891 18.89 18.891 45.417v45.692H260.001Zm219.954 363.998q15.814 0 26.929-11.07 11.115-11.07 11.115-26.884t-11.07-26.929q-11.07-11.115-26.884-11.115t-26.929 11.07q-11.115 11.07-11.115 26.884t11.07 26.929q11.07 11.115 26.884 11.115ZM356.001-180.309v-305.845l-85.153-127.924q-5.693-8.321-8.27-17.201t-2.577-18.567v-32.155h439.998v32.155q0 9.687-2.577 18.567t-8.27 17.201l-85.153 127.924v305.845q0 26.527-18.916 45.417-18.916 18.891-45.479 18.891H420.045q-26.563 0-45.303-18.891-18.741-18.89-18.741-45.417Z"/></svg>

<svg xmlns="http://www.w3.org/2000/svg" height="20" viewBox="0 -960 960 960" width="20"><path d="M260-734v-45.69q0-26.53 18.89-45.42T324.31-844h311.38q26.53 0 45.42 18.89T700-779.69V-734H260Zm219.95 364q15.82 0 26.93-11.07Q518-392.14 518-407.95q0-15.82-11.07-26.93Q495.86-446 480.05-446q-15.82 0-26.93 11.07Q442-423.86 442-408.05q0 15.82 11.07 26.93Q464.14-370 479.95-370ZM356-180.31v-305.84l-85.15-127.93q-5.69-8.32-8.27-17.2-2.58-8.88-2.58-18.57V-682h440v32.15q0 9.69-2.58 18.57t-8.27 17.2L604-486.15v305.84q0 26.53-18.92 45.42Q566.17-116 539.6-116H420.04q-26.56 0-45.3-18.89T356-180.31Z"/></svg>
